pype/resources/ftrack/action_icons/ComponentOpen.svg

<?xml version="1.0" ?><svg enable-background="new 0 0 512 512" id="Layer_1" version="1.1" viewBox="0 0 512 512" xml:space="preserve" xmlns="http://www.w3.org/2000/svg" xmlns:xlink="http://www.w3.org/1999/xlink"><g><g><linearGradient gradientUnits="userSpaceOnUse" id="SVGID_1_" x1="0.0000038" x2="512" y1="256" y2="256"><stop offset="0" style="stop-color:#95A5A6"/><stop offset="1" style="stop-color:#7F8C8D"/></linearGradient><circle cx="256" cy="256" fill="url(#SVGID_1_)" r="256"/><linearGradient gradientUnits="userSpaceOnUse" id="SVGID_2_" x1="42.6666679" x2="469.3333435" y1="256.0005188" y2="256.0005188"><stop offset="0" style="stop-color:#7F8C8D"/><stop offset="1" style="stop-color:#95A5A6"/></linearGradient><path d="M256,469.3338623c-117.6314697,0-213.3333282-95.7023926-213.3333282-213.3333435    c0-117.6314545,95.7018585-213.333313,213.3333282-213.333313c117.6357422,0,213.3333435,95.7018661,213.3333435,213.333313    C469.3333435,373.6314697,373.6357422,469.3338623,256,469.3338623z" fill="url(#SVGID_2_)"/></g><g><path d="M172.7434692,226.2037354l-28.622406,139.9381409    c-0.0623932,0.275177,0.1472015,0.5370483,0.4293365,0.5370483h210.706131L384,226.2037354H172.7434692z" opacity="0.3"/><polygon opacity="0.3" points="355.2565308,216.2026672 355.2565308,187.7279968 245.9622192,187.7279968     218.8202667,161.3205261 144,161.3205261 144,316.8346558 164.5797272,216.2026672   "/></g><g><path d="M164.7434692,218.2037354l-28.622406,139.9381409    c-0.0623932,0.275177,0.1472015,0.5370483,0.4293365,0.5370483h210.706131L376,218.2037354H164.7434692z" fill="#FFFFFF"/><polygon fill="#FFFFFF" points="347.2565308,208.2026672 347.2565308,179.7279968 237.9622192,179.7279968     210.8202667,153.3205261 136,153.3205261 136,308.8346558 156.5797424,208.2026672   "/></g></g></svg>

<?xml version="1.0" encoding="UTF-8" standalone="no"?>
<!DOCTYPE svg PUBLIC "-//W3C//DTD SVG 1.1//EN" "http://www.w3.org/Graphics/SVG/1.1/DTD/svg11.dtd">
<svg width="100%" height="100%" viewBox="0 0 512 512" version="1.1" xmlns="http://www.w3.org/2000/svg" xmlns:xlink="http://www.w3.org/1999/xlink" xml:space="preserve" xmlns:serif="http://www.serif.com/" style="fill-rule:evenodd;clip-rule:evenodd;stroke-linejoin:round;stroke-miterlimit:2;">
    <g>
        <g>
            <circle cx="256" cy="256" r="256" style="fill:rgb(157,178,195);"/>
            <path d="M256,469.334C138.369,469.334 42.667,373.631 42.667,256.001C42.667,138.369 138.369,42.667 256,42.667C373.636,42.667 469.333,138.369 469.333,256.001C469.333,373.631 373.636,469.334 256,469.334Z" style="fill:rgb(157,178,195);fill-rule:nonzero;"/>
        </g>
        <g>
            <path d="M172.743,226.204L144.121,366.142C144.059,366.417 144.268,366.679 144.55,366.679L355.257,366.679L384,226.204L172.743,226.204Z" style="fill-opacity:0.3;fill-rule:nonzero;"/>
            <path d="M355.257,216.203L355.257,187.728L245.962,187.728L218.82,161.321L144,161.321L144,316.835L164.58,216.203L355.257,216.203Z" style="fill-opacity:0.3;fill-rule:nonzero;"/>
        </g>
        <g>
            <path d="M164.743,218.204L136.121,358.142C136.059,358.417 136.268,358.679 136.55,358.679L347.257,358.679L376,218.204L164.743,218.204Z" style="fill:white;fill-rule:nonzero;"/>
            <path d="M347.257,208.203L347.257,179.728L237.962,179.728L210.82,153.321L136,153.321L136,308.835L156.58,208.203L347.257,208.203Z" style="fill:white;fill-rule:nonzero;"/>
        </g>
    </g>
</svg>
